!!!OTL: WER WOLLTE SICH MIT GRILLEN PLAGEN
!!!ARE: Europa, Mitteleuropa, Deutschland
!!!SCT: B0290
!!!YEM: Copyright 1995, estate of Helmut Schaffrath.
**kern
*ICvox
*Ivox
*M6/8
*k[b-]
*F:
{8cc
=1
8cc
8a
8f
8f
8e
8g
=2
8g
8cc
8b-
8b-
8a}
{8f
=3
8e
8g
8f
8e
8g
8f
=4
8g
8a
8bn
4cc}
{8cc
=5
4cc
8dd
8cc
8bn
8a
=6
8g
8dd
8ff
8ff
8ee}
{8cc
=7
4ff
8cc
8ee-
8dd
8b-
=8
8a
8b-
8g
4f}
==
!!!AGN: Stimmungs - Lied, Freude
!!!ONB: ESAC (Essen Associative Code) Database: BOEHME
!!!AMT: compound duple
!!!AIN: vox
!!!EED: Helmut Schaffrath
!!!EEV: 1.0
*-
